packages/kaspersky-hexa-ui-icons/src/iconsSVGs/16/SpecialSymbol.svg

<svg width="16" height="16" viewBox="0 0 16 16" fill="none" xmlns="http://www.w3.org/2000/svg">
<path fill-rule="evenodd" clip-rule="evenodd" d="M6.0166 8.64994H5.33327C3.50152 8.64994 2.0166 7.16501 2.0166 5.33327C2.0166 3.50152 3.50152 2.0166 5.33327 2.0166H12.6666C13.0256 2.0166 13.3166 2.30762 13.3166 2.6666C13.3166 3.02559 13.0256 3.3166 12.6666 3.3166H10.6499V13.3333C10.6499 13.6923 10.3589 13.9833 9.99993 13.9833C9.64095 13.9833 9.34993 13.6923 9.34993 13.3333V3.3166H7.3166V13.3333C7.3166 13.6923 7.02559 13.9833 6.6666 13.9833C6.30762 13.9833 6.0166 13.6923 6.0166 13.3333V8.64994ZM3.3166 5.33327C3.3166 4.21949 4.21949 3.3166 5.33327 3.3166H6.0166V7.34994H5.33327C4.21949 7.34994 3.3166 6.44704 3.3166 5.33327Z" fill="black"/>
</svg>

<svg xmlns="http://www.w3.org/2000/svg" width="16" height="16" fill="none" viewBox="0 0 16 16"><path fill="#000" fill-rule="evenodd" d="M6.0167 8.65h-.6834c-1.8317 0-3.3166-1.4849-3.3166-3.3166s1.4849-3.3167 3.3166-3.3167h7.3334a.65.65 0 0 1 0 1.3H10.65v10.0167a.65.65 0 1 1-1.3 0V3.3167H7.3167v10.0167a.65.65 0 1 1-1.3 0zm-2.7-3.3166c0-1.1138.9029-2.0167 2.0166-2.0167h.6834v4.0334h-.6834c-1.1138 0-2.0166-.903-2.0166-2.0167"/></svg>
